Adwaita++-Light/panel/16/uget-tray-downloading.svg

<svg height="16" width="16" xmlns="http://www.w3.org/2000/svg">
  <path d="m6.625.99996s-2.3269.01704-2.625 2.62504v.875 5.5h-2v-6h-1v5.75c0 1.75 1.75 1.25 1.75 1.25h1.25v1.375c0 2.625 2.625 2.625 2.625 2.625h4.75c2.625 0 2.625-2.625 2.625-2.625v-5.375h-3v2h1l-3 4-3-4h1v-5h4v1h3v-1.375s0-2.62504-2.625-2.62504z" fill="#444"/>
  <path d="m8 5v4a1.0001 1.0001 0 0 1 -.2519531.6621094l1.2519531 1.6699216 1.251953-1.6679685a1.0001 1.0001 0 0 1 -.251953-.6640625v-4z" fill="#4285f4"/>
</svg>

<svg xmlns="http://www.w3.org/2000/svg" width="16" height="16" version="1.1">
 <defs>
  <style id="current-color-scheme" type="text/css">
   .ColorScheme-Text { color:#444444; } .ColorScheme-Highlight { color:#4285f4; }
  </style>
 </defs>
 <path style="fill:currentColor" class="ColorScheme-Text" d="M 6.625,0.99996 C 6.625,0.99996 4.2981,1.017 4,3.625 V 4.5 10 H 2 V 4 H 1 V 9.75 C 1,11.5 2.75,11 2.75,11 H 4 V 12.375 C 4,15 6.625,15 6.625,15 H 11.375 C 14,15 14,12.375 14,12.375 V 7 H 11 V 9 H 12 L 9,13 6,9 H 7 V 4 H 11 V 5 H 14 V 3.625 C 14,3.625 14,0.99996 11.375,0.99996 Z"/>
 <path style="fill:currentColor" class="ColorScheme-Highlight" d="M 8 5 L 8 9 A 1.0001 1.0001 0 0 1 7.7480469 9.6621094 L 9 11.332031 L 10.251953 9.6640625 A 1.0001 1.0001 0 0 1 10 9 L 10 5 L 8 5 z"/>
</svg>
